X: 25852
T: Master's Return, The
R: reel
M: 4/4
K: Dmajor
(3.g.f.e|dcdB ABde|(3.g.f.e df edBA|FAdB AF ~F2|EDEF DEFA|
dedB ABde|(3.g.f.e df edBA|FAdB AF ~F2|EDEF D2 (3FGA|
d2 fd Adfd|egfd eB ~B2|dgfd Adfd|egfe d2 (3ABc|
defg afdf|egfd eB ~B2|defg a3b|afef d3||

